src/assets/svg/like.svg

<svg width="34" height="34" viewBox="0 0 34 34" fill="none" xmlns="http://www.w3.org/2000/svg">
<path fill-rule="evenodd" clip-rule="evenodd" d="M16.5488 9.25735C16.7471 9.56672 17.2534 9.56694 17.4518 9.25766C18.571 7.51316 20.5136 6.375 22.788 6.375C26.3173 6.375 28.8587 9.23039 29.1789 12.632C29.1789 12.632 29.353 13.4757 28.9736 14.996C28.4555 17.0667 27.241 18.907 25.6013 20.3101L17.2952 27.3143C17.0828 27.4934 16.7718 27.4921 16.5609 27.3112L8.40003 20.3101C6.7603 18.907 5.54577 17.0667 5.02771 14.996C4.64832 13.4757 4.81999 12.632 4.81999 12.632C5.14012 9.22808 7.68402 6.375 11.2133 6.375C13.4876 6.375 15.4309 7.51302 16.5488 9.25735Z" fill="white" stroke="white" stroke-width="4.25" stroke-linejoin="round"/>
</svg>

<svg width="34" height="34" fill="none" xmlns="http://www.w3.org/2000/svg"><path fill-rule="evenodd" clip-rule="evenodd" d="M16.549 9.257c.198.31.704.31.903 0 1.119-1.744 3.062-2.882 5.336-2.882 3.53 0 6.07 2.855 6.39 6.257 0 0 .175.844-.204 2.364-.518 2.07-1.733 3.911-3.373 5.314l-8.306 7.004a.567.567 0 0 1-.734-.003l-8.161-7c-1.64-1.404-2.854-3.244-3.372-5.315-.38-1.52-.208-2.364-.208-2.364.32-3.404 2.864-6.257 6.393-6.257 2.275 0 4.218 1.138 5.336 2.882z" fill="#fff" stroke="#fff" stroke-width="4.25" stroke-linejoin="round"/></svg>
